lib/brands/icons/skype.svg

<svg xmlns="http://www.w3.org/2000/svg" fill="none" aria-hidden="true" viewBox="0 0 48 48"><g id="skype-Icon"><path id="Vector" fill="#00AFF0" d="M40.7258 26.998C40.7144 27.0612 40.7064 27.1251 40.6944 27.1884L40.6329 26.8258C40.6665 26.8822 40.6944 26.941 40.7258 26.998C40.9116 25.9866 41.0091 24.9512 41.0091 23.9165C41.0091 21.6218 40.5599 19.3955 39.6722 17.2997C38.8159 15.2752 37.5907 13.4571 36.0286 11.8961C34.4688 10.3352 32.6495 9.10999 30.6262 8.25368C28.531 7.36715 26.3047 6.91789 24.01 6.91789C22.9285 6.91789 21.8452 7.01937 20.7911 7.22177C20.7888 7.22234 20.786 7.22234 20.7831 7.22291C20.8424 7.25426 20.9023 7.2822 20.9604 7.31469L20.603 7.25882C20.6628 7.24742 20.7233 7.23488 20.7831 7.22291C19.3367 6.45382 17.7102 6.04333 16.0637 6.04333C13.3756 6.04333 10.8483 7.09007 8.9475 8.99141C7.0473 10.8922 6 13.4195 6 16.1076C6 17.8185 6.44013 19.5004 7.26623 20.9867C7.27706 20.9251 7.28447 20.8629 7.29644 20.8014L7.35802 21.1577C7.32609 21.1018 7.29816 21.0437 7.26623 20.9867C7.09861 21.9496 7.01025 22.9336 7.01025 23.9165C7.01025 26.2118 7.4595 28.4375 8.34717 30.5338C9.20234 32.5589 10.4281 34.3758 11.9885 35.9368C13.5506 37.4978 15.3676 38.7247 17.3932 39.5787C19.4884 40.467 21.7153 40.9168 24.01 40.9168C25.0088 40.9168 26.0099 40.8256 26.9871 40.6523C26.9301 40.6203 26.872 40.5912 26.8138 40.5576L27.177 40.6215C27.1143 40.6334 27.051 40.6408 26.9871 40.6523C28.4928 41.504 30.1974 41.9567 31.938 41.9567C34.6255 41.9567 37.1517 40.9117 39.0525 39.0097C40.9538 37.1101 42 34.5822 42 31.8941C42 30.1775 41.5576 28.49 40.7258 26.998ZM24.0778 34.3274C18.0386 34.3274 15.3368 31.3582 15.3368 29.133C15.3368 27.9917 16.1794 27.1918 17.3408 27.1918C19.9251 27.1918 19.2558 30.9027 24.0778 30.9027C26.5464 30.9027 27.9096 29.5623 27.9096 28.1906C27.9096 27.3657 27.5025 26.4512 25.8771 26.0504L20.5055 24.7095C16.1794 23.6246 15.3944 21.286 15.3944 19.0876C15.3944 14.5232 19.6919 12.8095 23.7278 12.8095C27.4455 12.8095 31.828 14.8642 31.828 17.6024C31.828 18.7757 30.812 19.4582 29.6513 19.4582C27.4455 19.4582 27.8514 16.4052 23.4085 16.4052C21.2039 16.4052 19.9827 17.4035 19.9827 18.8322C19.9827 20.258 21.7238 20.7136 23.2358 21.0579L27.2118 21.9405C31.5669 22.9108 32.6712 25.4535 32.6712 27.8486C32.6712 31.5578 29.824 34.3274 24.0778 34.3274ZM26.8138 40.5576C26.872 40.5912 26.9301 40.6203 26.9871 40.6523C27.051 40.6408 27.1143 40.6334 27.177 40.6215L26.8138 40.5576ZM40.6944 27.1884C40.7064 27.1251 40.7144 27.0612 40.7258 26.998C40.6944 26.941 40.6665 26.8822 40.6329 26.8258L40.6944 27.1884ZM7.29644 20.8014C7.28447 20.8629 7.27706 20.9251 7.26623 20.9867C7.29816 21.0437 7.32609 21.1018 7.35802 21.1577L7.29644 20.8014ZM20.9604 7.31469C20.9023 7.2822 20.8424 7.25426 20.7831 7.22291C20.7233 7.23488 20.6628 7.24742 20.603 7.25882L20.9604 7.31469Z"/></g></svg>

<svg xmlns="http://www.w3.org/2000/svg" fill="none" aria-hidden="true" viewBox="0 0 48 48"><path fill="#00AFF0" d="M40.726 26.998c-.012.063-.02.127-.032.19l-.061-.362c.033.056.061.115.093.172a17.09 17.09 0 0 0 .283-3.082c0-2.294-.45-4.52-1.337-6.616a16.927 16.927 0 0 0-3.643-5.404A16.938 16.938 0 0 0 24.01 6.918a17.06 17.06 0 0 0-3.219.304h-.008c.06.032.12.06.177.093l-.357-.056.18-.036a10.075 10.075 0 0 0-4.72-1.18 9.996 9.996 0 0 0-7.115 2.948A10 10 0 0 0 6 16.108c0 1.71.44 3.392 1.266 4.879.011-.062.018-.124.03-.186l.062.357c-.032-.056-.06-.114-.092-.171a17.12 17.12 0 0 0-.256 2.93c0 2.295.45 4.52 1.337 6.617a16.92 16.92 0 0 0 3.642 5.403 16.907 16.907 0 0 0 5.404 3.642 16.86 16.86 0 0 0 6.617 1.338c.999 0 2-.091 2.977-.265-.057-.032-.115-.06-.173-.094l.363.063c-.063.012-.126.02-.19.031a10.056 10.056 0 0 0 4.951 1.305 9.99 9.99 0 0 0 7.115-2.947A9.992 9.992 0 0 0 42 31.894c0-1.716-.442-3.404-1.274-4.896Zm-16.648 7.33c-6.04 0-8.741-2.97-8.741-5.195 0-1.141.842-1.941 2.004-1.941 2.584 0 1.915 3.71 6.737 3.71 2.468 0 3.832-1.34 3.832-2.711 0-.825-.407-1.74-2.033-2.14l-5.371-1.341c-4.327-1.085-5.112-3.424-5.112-5.622 0-4.565 4.298-6.279 8.334-6.279 3.717 0 8.1 2.055 8.1 4.793 0 1.174-1.016 1.856-2.177 1.856-2.206 0-1.8-3.053-6.242-3.053-2.205 0-3.426.998-3.426 2.427 0 1.426 1.74 1.882 3.253 2.226l3.976.883c4.355.97 5.46 3.512 5.46 5.908 0 3.709-2.848 6.478-8.594 6.478Zm2.736 6.23c.058.033.116.062.173.094.064-.011.127-.019.19-.03l-.363-.064Zm13.88-13.37c.012-.063.02-.127.032-.19-.032-.057-.06-.116-.093-.172l.061.362ZM7.296 20.801c-.012.062-.019.124-.03.186.032.057.06.115.092.17l-.062-.356ZM20.96 7.315c-.058-.033-.118-.06-.177-.092l-.18.036.357.056Z"/></svg>
